X: 1
T: Forked Deer
R: reel
Z: 2011 John Chambers <jc:trillian.mit.edu>
S: printed MS of unknown origin
M: C|
L: 1/8
K: D
A2 |:\
"D"defg a2f2 | "G"gfge "A7"fdec | "D"defg    a2f2 | "A7"gfed  cBA2 |
"D"defg a2f2 | "G"gebe "A7"a2fe | "D"dBAF "G"GBAG | "A7"FDEF "D"D4 :|
|:\
"A"A4 cABc | ABAG "(E7)"F2E2 | "A"A4 cABc | ABcA "D"d4 |
"A"A4 cABc | ABAG F2E2 | "D"D2ED "G"FDGD | "A7"FDEF "D"D4 :|
